X: 238
T:Tulerunt Dominum / Scio enim
N: Derived from Jos2014-Tulerunt_Dominum.krn
C: Josquin des Prez
%%abc-version 2.0
%%abcx-abcm2ps-target-version 5.9.1 (29 Sep 2008)
%%abc-creator hum2abc beta
%%abcx-conversion-date 2019/02/12 16:15:50
%%abc-edited-by Jesse Rodin
%%abc-edited-by Joel Chapman 2012/1/23
%%abcx-initial-encoding-date 2012/01/23/
%%humdrum-veritas 2997087110
%%humdrum-veritas-data 2478516480
%%linebreak <none>
%%barnumbers 0
L: 1/4
M: 2/1
Q: 1/2=120
%%staves [1 2 3 4]
V: 1 clef=treble
V: 2 clef=treble-8
V: 3 clef=treble-8
V: 4 clef=bass
K: C
[V:1] E8 | 
[V:2] z8 | 
[V:3] z8 | 
[V:4] z8 | 
[V:1] F8 | 
[V:2] z8 | 
[V:3] z8 | 
[V:4] z8 | 
[V:1] E8 | 
[V:2] z8 | 
[V:3] z8 | 
[V:4] z8 | 
[V:1] G8 | 
[V:2] e8 | 
[V:3] z8 | 
[V:4] E,8 | 
[V:1] A8 | 
[V:2] c4d4 | 
[V:3] z8 | 
[V:4] F,8 | 
[V:1] G8 | 
[V:2] e6dc | 
[V:3] z8 | 
[V:4] E,8 | 
[V:1] z4G4 | 
[V:2] B8 | 
[V:3] E8 | 
[V:4] G,8 | 
[V:1] C4D4 | 
[V:2] z4A4 | 
[V:3] F8 | 
[V:4] A,8 | 
[V:1] E8 | 
[V:2] G3AB3A | 
[V:3] E8 | 
[V:4] B,4G,4- | 
[V:1] D4G4- | 
[V:2] Bcd4c2 | 
[V:3] G8 | 
[V:4] G,2F,2E,4 | 
[V:1] G2FEF4 | 
[V:2] d8 | 
[V:3] A8 | 
[V:4] D,8 | 
[V:1] G4c4 | 
[V:2] B4e4- | 
[V:3] G8 | 
[V:4] E,4C,4 | 
[V:1] B4A4- | 
[V:2] e2d2c4 | 
[V:3] z8 | 
[V:4] G,4A,4 | 
[V:1] A2^G^FG4 | 
[V:2] B8 | 
[V:3] z8 | 
[V:4] E,8 | 
[V:1] A8 | 
[V:2] z4c4 | 
[V:3] A8 | 
[V:4] F,4A,4 | 
[V:1] z4G4 | 
[V:2] d4e4 | 
[V:3] B8 | 
[V:4] G,4E,4 | 
[V:1] c4B4 | 
[V:2] A4B4 | 
[V:3] c4d4- | 
[V:4] z4G,4 | 
[V:1] A4B4 | 
[V:2] c2A2B4- | 
[V:3] d4e4- | 
[V:4] F,4E,4 | 
[V:1] A8 | 
[V:2] B2AGA4 | 
[V:3] e2dcd4 | 
[V:4] F,8 | 
[V:1] G8 | 
[V:2] B4c4 | 
[V:3] G8- | 
[V:4] E,8- | 
[V:1] z4G4 | 
[V:2] B4z2B2 | 
[V:3] G8 | 
[V:4] E,8 | 
[V:1] A4E2F2- | 
[V:2] A2c4A2 | 
[V:3] z8 | 
[V:4] A,,8 | 
[V:1] F2E4DC | 
[V:2] B2c3BA2- | 
[V:3] z8 | 
[V:4] z8 | 
[V:1] B,4A,2C2- | 
[V:2] A2^G2A4 | 
[V:3] z8 | 
[V:4] E,4F,3G, | 
[V:1] C2D2E4 | 
[V:2] z8 | 
[V:3] z8 | 
[V:4] A,2G,3F,E,2- | 
[V:1] F4E4 | 
[V:2] z8 | 
[V:3] z8 | 
[V:4] E,2D,2E,2C,2- | 
[V:1] G6A2- | 
[V:2] E6F2 | 
[V:3] z8 | 
[V:4] C,D,E,F,G,2D,2 | 
[V:1] AGE4D2 | 
[V:2] G4A4 | 
[V:3] z8 | 
[V:4] E,4F,4 | 
[V:1] E8- | 
[V:2] B8- | 
[V:3] E6F2 | 
[V:4] G,6F,2 | 
[V:1] E8 | 
[V:2] B4c4 | 
[V:3] G4A4- | 
[V:4] E,4A,,4 | 
[V:1] z4B4 | 
[V:2] B8 | 
[V:3] A4^G4 | 
[V:4] E,8 | 
[V:1] c6B2 | 
[V:2] e8 | 
[V:3] A8 | 
[V:4] z4A,,4- | 
[V:1] A8 | 
[V:2] e4e4 | 
[V:3] c8 | 
[V:4] A,,2B,,2C,2D,2 | 
[V:1] G4A4 | 
[V:2] e4z2c2 | 
[V:3] B4A4 | 
[V:4] E,4F,4 | 
[V:1] B8 | 
[V:2] B2d3cB2 | 
[V:3] d8 | 
[V:4] G,8 | 
[V:1] z8 | 
[V:2] A4G2B2 | 
[V:3] c4d4 | 
[V:4] A,4B,4 | 
[V:1] z4E4- | 
[V:2] A4G4- | 
[V:3] e6d2 | 
[V:4] C4C,4- | 
[V:1] E2F2G4 | 
[V:2] G4G4 | 
[V:3] c4B4 | 
[V:4] C,2D,2E,4 | 
[V:1] A2c4BA | 
[V:2] c3de4- | 
[V:3] A4c4- | 
[V:4] A,,8 | 
[V:1] G3AB2G2 | 
[V:2] e8 | 
[V:3] c2B2B4- | 
[V:4] E,8 | 
[V:1] A4A4 | 
[V:2] c4d4 | 
[V:3] B4A4 | 
[V:4] F,8 | 
[V:1] !fermata!G8- | 
[V:2] !fermata!e8- | 
[V:3] B4c4 | 
[V:4] !fermata!E,8- | 
[V:1] G8 | 
[V:2] e8 | 
[V:3] !fermata!B8 | 
[V:4] E,8 | 
[V:1] C6D2 | 
[V:2] E8- | 
[V:3] A8- | 
[V:4] A,,6B,,2 | 
[V:1] E4D4- | 
[V:2] E4F4- | 
[V:3] A8- | 
[V:4] C,4D,4- | 
[V:1] D2C2E4- | 
[V:2] F4E4 | 
[V:3] A8 | 
[V:4] D,2A,,2C,4 | 
[V:1] E2DCD4 | 
[V:2] F8 | 
[V:3] !fermata!A8- | 
[V:4] D,8 | 
[V:1] !fermata!E8 | 
[V:2] !fermata!E8 | 
[V:3] A8 | 
[V:4] !fermata!A,,8 | 
[V:1] B,8 | 
[V:2] G8- | 
[V:3] D8 | 
[V:4] G,,8 | 
[V:1] C8 | 
[V:2] G4A4 | 
[V:3] E8 | 
[V:4] C,4A,,4 | 
[V:1] B,4E4- | 
[V:2] D4E4 | 
[V:3] G6A2 | 
[V:4] G,,4C,4- | 
[V:1] E2D2C4 | 
[V:2] C2D2E4- | 
[V:3] G4A4- | 
[V:4] C,2B,,2A,,4 | 
[V:1] D8 | 
[V:2] E2DCD4 | 
[V:3] A2GFG4 | 
[V:4] B,,8 | 
[V:1] C4D4 | 
[V:2] E4G4- | 
[V:3] A4B4 | 
[V:4] A,,4G,,4 | 
[V:1] E8 | 
[V:2] G2E3FG2- | 
[V:3] G4c4- | 
[V:4] C,8 | 
[V:1] F8 | 
[V:2] G2FEF4 | 
[V:3] c2BAB4 | 
[V:4] D,8 | 
[V:1] E4A4- | 
[V:2] G4A4- | 
[V:3] c8- | 
[V:4] C,4F,4- | 
[V:1] A2G2F4 | 
[V:2] A4A4 | 
[V:3] c4d4 | 
[V:4] F,2E,2D,4 | 
[V:1] G6A2 | 
[V:2] e4B4- | 
[V:3] B4e4- | 
[V:4] E,6F,2 | 
[V:1] B3AA4- | 
[V:2] B4e4- | 
[V:3] e2d2c4 | 
[V:4] G,4A,4 | 
[V:1] A2^G^FG4 | 
[V:2] e4e4 | 
[V:3] B8 | 
[V:4] E,8 | 
[V:1] A8 | 
[V:2] c3BA2G2 | 
[V:3] A8- | 
[V:4] F,6E,2 | 
[V:1] z4A4- | 
[V:2] F4E2F2- | 
[V:3] A8 | 
[V:4] D,4C,2D,2- | 
[V:1] A2B2c4 | 
[V:2] F2EDE2A2- | 
[V:3] z4E4- | 
[V:4] D,4C,4 | 
[V:1] d8 | 
[V:2] A2^G^F^G4 | 
[V:3] E2DCD4 | 
[V:4] B,,8 | 
[V:1] c4A2c2- | 
[V:2] A6B2 | 
[V:3] E8 | 
[V:4] A,,8 | 
[V:1] cBAGA4 | 
[V:2] c4d4- | 
[V:3] A4F4 | 
[V:4] z8 | 
[V:1] B4E4- | 
[V:2] d2e2c4 | 
[V:3] G4A4 | 
[V:4] z8 | 
[V:1] E2F2G4 | 
[V:2] B8 | 
[V:3] E8 | 
[V:4] z8 | 
[V:1] A4F4 | 
[V:2] A8 | 
[V:3] F6G2 | 
[V:4] z4D,4 | 
[V:1] E2C3DE2- | 
[V:2] z8 | 
[V:3] A4G4 | 
[V:4] A,,4C,4 | 
[V:1] E2DCD4 | 
[V:2] A8 | 
[V:3] F8 | 
[V:4] D,8 | 
[V:1] E4C4 | 
[V:2] A8 | 
[V:3] E8 | 
[V:4] A,,8 | 
[V:1] D6A,2 | 
[V:2] A8 | 
[V:3] F8 | 
[V:4] D,8 | 
[V:1] C4D4- | 
[V:2] A4_B4 | 
[V:3] E8- | 
[V:4] A,,4G,,4 | 
[V:1] D2^CB,C4 | 
[V:2] A8 | 
[V:3] E8 | 
[V:4] A,,8 | 
[V:1] D8 | 
[V:2] F6D2 | 
[V:3] D8 | 
[V:4] z4F,4- | 
[V:1] z4F4- | 
[V:2] d4d4- | 
[V:3] z4A4- | 
[V:4] F,2E,2D,4- | 
[V:1] F2E2D4 | 
[V:2] d2c2A4- | 
[V:3] A2G2F4 | 
[V:4] D,8 | 
[V:1] C8 | 
[V:2] A4A4- | 
[V:3] E8 | 
[V:4] A,,8 | 
[V:1] D4E4- | 
[V:2] A2B2c4 | 
[V:3] F4G4 | 
[V:4] D,4C,4 | 
[V:1] E2DCD4 | 
[V:2] A8 | 
[V:3] F8 | 
[V:4] D,8 | 
[V:1] z4E4- | 
[V:2] G3AB4- | 
[V:3] G8 | 
[V:4] E,8 | 
[V:1] E4D4 | 
[V:2] B2AGA4 | 
[V:3] A8 | 
[V:4] F,8 | 
[V:1] E8- | 
[V:2] G4A4 | 
[V:3] B4c4 | 
[V:4] E,8- | 
[V:1] E8- | 
[V:2] G4c4 | 
[V:3] B4A4 | 
[V:4] E,8- | 
[V:1] E8 ||  
[V:2] B8 ||  
[V:3] G8 ||  
[V:4] E,8 ||  
[V:1]  [K:C] [M:2/1]E8- | 
[V:2]  [K:C] [M:2/1]G8- | 
[V:3]  [K:C] [M:2/1]B8- | 
[V:4]  [K:C] [M:2/1]E,8- | 
[V:1] E8 | 
[V:2] G4A4- | 
[V:3] B4c4- | 
[V:4] E,4A,,4- | 
[V:1] E8 | 
[V:2] A8 | 
[V:3] c8 | 
[V:4] A,,2B,,2C,2D,2 | 
[V:1] E8 | 
[V:2] G6E2- | 
[V:3] B4c2A2- | 
[V:4] E,4C,4 | 
[V:1] D8 | 
[V:2] E2DCD4 | 
[V:3] A2^G^F^G4 | 
[V:4] B,,8 | 
[V:1] !fermata!C8- | 
[V:2] E4F4 | 
[V:3] !fermata!A8- | 
[V:4] !fermata!A,,8- | 
[V:1] C8 | 
[V:2] !fermata!E8 | 
[V:3] A8 | 
[V:4] A,,8 | 
[V:1] E8 | 
[V:2] E4G4 | 
[V:3] G4E4- | 
[V:4] C,8 | 
[V:1] C4D4 | 
[V:2] A4B4 | 
[V:3] E4F4 | 
[V:4] A,,4D,4 | 
[V:1] E6DC | 
[V:2] c8 | 
[V:3] G8- | 
[V:4] C,6B,,A,, | 
[V:1] B,8 | 
[V:2] d8- | 
[V:3] G8 | 
[V:4] G,,8 | 
[V:1] z4B4 | 
[V:2] d8 | 
[V:3] G8 | 
[V:4] B,,8 | 
[V:1] c6B2 | 
[V:2] c3BA2G2 | 
[V:3] A6B2 | 
[V:4] A,,8 | 
[V:1] A4G4- | 
[V:2] F4E4 | 
[V:3] c2d2e4- | 
[V:4] A,4B,4 | 
[V:1] G2E2E4 | 
[V:2] C3DEFG2- | 
[V:3] e4c4- | 
[V:4] C4C,4 | 
[V:1] F8 | 
[V:2] G2FEF4 | 
[V:3] c2BAB4 | 
[V:4] D,8 | 
[V:1] E4C4 | 
[V:2] G8- | 
[V:3] c4z2c2 | 
[V:4] C,6B,,A,, | 
[V:1] D3EF2E2- | 
[V:2] G4z4 | 
[V:3] B3cd2c2- | 
[V:4] G,,4z2C,2- | 
[V:1] E2DCB,4 | 
[V:2] z8 | 
[V:3] c2BAG4 | 
[V:4] C,2D,2E,4 | 
[V:1] z4c4 | 
[V:2] c6Bc | 
[V:3] A8 | 
[V:4] F,4A,4 | 
[V:1] B4A4 | 
[V:2] d2e4d2 | 
[V:3] z8 | 
[V:4] G,4F,4 | 
[V:1] G2A3Bc2- | 
[V:2] e2c4BA | 
[V:3] z8 | 
[V:4] E,2A,4G,F, | 
[V:1] c2B4A2- | 
[V:2] G4A4 | 
[V:3] z8 | 
[V:4] E,4F,4 | 
[V:1] A2^G^FG4 | 
[V:2] B8 | 
[V:3] z8 | 
[V:4] E,8 | 
[V:1] A8- | 
[V:2] A8 | 
[V:3] z4E4 | 
[V:4] A,,8 | 
[V:1] A8 | 
[V:2] z4E4 | 
[V:3] F4E2A2- | 
[V:4] z4A,,4 | 
[V:1] z8 | 
[V:2] F4E2A2- | 
[V:3] A2B2c4 | 
[V:4] D,4A,,4 | 
[V:1] z8 | 
[V:2] A2GFGAB2- | 
[V:3] B4e4- | 
[V:4] E,8 | 
[V:1] z8 | 
[V:2] B2AGA4 | 
[V:3] e2dcd4 | 
[V:4] F,8 | 
[V:1] z8 | 
[V:2] B4z2c2- | 
[V:3] G4A4 | 
[V:4] E,8- | 
[V:1] z8 | 
[V:2] c2B2A4 | 
[V:3] G4c4 | 
[V:4] E,4A,,4 | 
[V:1] z8 | 
[V:2] G4z2c2- | 
[V:3] B4e4 | 
[V:4] E,6F,2 | 
[V:1] z8 | 
[V:2] c2B4A2- | 
[V:3] d4c4 | 
[V:4] G,4A,4 | 
[V:1] E8 | 
[V:2] A2^G^F^G4 | 
[V:3] B8 | 
[V:4] E,8 | 
[V:1] E6DC | 
[V:2] A8 | 
[V:3] c8 | 
[V:4] z4A,4 | 
[V:1] D4G4- | 
[V:2] z8 | 
[V:3] B8 | 
[V:4] G,6F,2 | 
[V:1] G2F2E2D2 | 
[V:2] z8 | 
[V:3] z4c4- | 
[V:4] E,2D,2C,2B,,2 | 
[V:1] C4D4 | 
[V:2] z4D4- | 
[V:3] c2A2B4 | 
[V:4] A,,4G,,4- | 
[V:1] z4D4 | 
[V:2] D4D4 | 
[V:3] G8 | 
[V:4] G,,2A,,2B,,4 | 
[V:1] C4A,4- | 
[V:2] E8 | 
[V:3] A6B2 | 
[V:4] A,,8- | 
[V:1] A,2B,2C2D2 | 
[V:2] A6GF | 
[V:3] c2d2e4 | 
[V:4] A,,8 | 
[V:1] E4F4 | 
[V:2] E4D4 | 
[V:3] c4d4 | 
[V:4] z8 | 
[V:1] G4A4 | 
[V:2] E4F4 | 
[V:3] B2c4BA | 
[V:4] z8 | 
[V:1] B4c4 | 
[V:2] E4z2e2- | 
[V:3] G4A4- | 
[V:4] z8 | 
[V:1] C4D2E2- | 
[V:2] e2dcB2c2- | 
[V:3] A4G4 | 
[V:4] z8 | 
[V:1] E2DCD4 | 
[V:2] cBAGA4 | 
[V:3] F8 | 
[V:4] z4A,4 | 
[V:1] E8- | 
[V:2] G4E4 | 
[V:3] E8 | 
[V:4] B,4G,4- | 
[V:1] E8- | 
[V:2] B8 | 
[V:3] z4G4 | 
[V:4] G,2F,2E,4 | 
[V:1] E8- | 
[V:2] c4A4- | 
[V:3] A4c4 | 
[V:4] A,,8 | 
[V:1] E8 | 
[V:2] A2^G^F^G4 | 
[V:3] B8 | 
[V:4] E,8 | 
[V:1] z8 | 
[V:2] A4G4 | 
[V:3] A4B4- | 
[V:4] F,4E,4 | 
[V:1] z8 | 
[V:2] A8 | 
[V:3] B2A2A4- | 
[V:4] F,8 | 
[V:1] z8 | 
[V:2] B8 | 
[V:3] A4^G4 | 
[V:4] E,8 | 
[V:1] E8 | 
[V:2] c6B2 | 
[V:3] A8 | 
[V:4] A,,8 | 
[V:1] E8 | 
[V:2] A4G4- | 
[V:3] c4c4 | 
[V:4] A,,4C,4 | 
[V:1] D4C4 | 
[V:2] G4E4 | 
[V:3] B4A4- | 
[V:4] G,,4A,,4 | 
[V:1] B,8 | 
[V:2] z4B4 | 
[V:3] A2GFG4 | 
[V:4] E,8 | 
[V:1] A,4C4 | 
[V:2] c4A4 | 
[V:3] E4F4 | 
[V:4] A,,8 | 
[V:1] B,4C4- | 
[V:2] d4G4- | 
[V:3] G4E4 | 
[V:4] G,,4C,4 | 
[V:1] C2B,A,B,4 | 
[V:2] G4G4 | 
[V:3] D8 | 
[V:4] G,,8 | 
[V:1] C8 | 
[V:2] E6F2- | 
[V:3] C8- | 
[V:4] G,4G,2A,2- | 
[V:1] z4G4 | 
[V:2] F2EDC4 | 
[V:3] C8 | 
[V:4] A,2G,F,E,4- | 
[V:1] G2A4GF | 
[V:2] z2c4d2 | 
[V:3] z8 | 
[V:4] E,2F,4E,D, | 
[V:1] G2F4ED | 
[V:2] e2d2A4 | 
[V:3] z8 | 
[V:4] C,2D,4C,B,, | 
[V:1] C2D2E2C2 | 
[V:2] A2B2A4 | 
[V:3] z8 | 
[V:4] A,,2G,,2C,3D, | 
[V:1] B,4A,4 | 
[V:2] G4A4 | 
[V:3] z8 | 
[V:4] E,4A,,4 | 
[V:1] E8 | 
[V:2] G8 | 
[V:3] z8 | 
[V:4] C,8 | 
[V:1] E4E4 | 
[V:2] G4G4 | 
[V:3] z8 | 
[V:4] C,4C,4 | 
[V:1] G4G4 | 
[V:2] c4c4 | 
[V:3] z8 | 
[V:4] C,4C,4 | 
[V:1] A4A4 | 
[V:2] e8 | 
[V:3] c4c4 | 
[V:4] A,,4A,,4 | 
[V:1] G4c4- | 
[V:2] e4z4 | 
[V:3] B4e4- | 
[V:4] E,4C,4 | 
[V:1] c2B2A4- | 
[V:2] z8 | 
[V:3] e2d2c4 | 
[V:4] G,4A,4 | 
[V:1] A2^G^FG4 | 
[V:2] z8 | 
[V:3] B8 | 
[V:4] E,8 | 
[V:1] A8- | 
[V:2] e8 | 
[V:3] c6Bc | 
[V:4] A,8 | 
[V:1] A8 | 
[V:2] f6e2 | 
[V:3] d4c4 | 
[V:4] z8 | 
[V:1] z8 | 
[V:2] d4c4 | 
[V:3] BAGFE2A2- | 
[V:4] z8 | 
[V:1] z8 | 
[V:2] z2d4e2- | 
[V:3] A2G2F2E2 | 
[V:4] z8 | 
[V:1] z8 | 
[V:2] e2dcd3c | 
[V:3] F4F4 | 
[V:4] z8 | 
[V:1] z8 | 
[V:2] e2B2c3B | 
[V:3] E4z2e2- | 
[V:4] z8 | 
[V:1] z8 | 
[V:2] AGA3GFE | 
[V:3] e2f3ee2- | 
[V:4] z8 | 
[V:1] z8 | 
[V:2] F4E4 | 
[V:3] e2d2e4 | 
[V:4] z8 | 
[V:1] A8 | 
[V:2] e8 | 
[V:3] c8 | 
[V:4] A,,8 | 
[V:1] A4A4 | 
[V:2] e4e4 | 
[V:3] c4c4 | 
[V:4] A,,4A,,4 | 
[V:1] G8 | 
[V:2] e2dcB2e2- | 
[V:3] B4G2B2- | 
[V:4] E,8 | 
[V:1] A8 | 
[V:2] e2dcd4 | 
[V:3] B2AGA4 | 
[V:4] F,8 | 
[V:1] G8 | 
[V:2] e8- | 
[V:3] B8 | 
[V:4] E,8 | 
[V:1] A6B2 | 
[V:2] e8 | 
[V:3] c8 | 
[V:4] z4A,4- | 
[V:1] c4B4 | 
[V:2] z4d4 | 
[V:3] A4B4 | 
[V:4] A,2G,F,G,4 | 
[V:1] G2A4F2 | 
[V:2] e2A3Bc2 | 
[V:3] c4A4 | 
[V:4] E,2F,4E,D, | 
[V:1] G2E4F2- | 
[V:2] B2c3BA2 | 
[V:3] G4A4 | 
[V:4] E,2C,4D,2- | 
[V:1] F2EDC2F2 | 
[V:2] F2G2A3B | 
[V:3] z4A4 | 
[V:4] D,2C,B,,A,,2D,2 | 
[V:1] E2F3EC2- | 
[V:2] c2d3efg | 
[V:3] A4A2A2- | 
[V:4] A,,2D,3C,F,2- | 
[V:1] CDE4D2 | 
[V:2] a2A4A2 | 
[V:3] AGFEF4 | 
[V:4] F,E,D,C,D,4 | 
[V:1] E8 ||  
[V:2] A8 ||  
[V:3] E8 ||  
[V:4] A,,8 ||  
[V:1]  [K:C] [M:2/1]z8 | 
[V:2]  [K:C] [M:2/1]A8 | 
[V:3]  [K:C] [M:2/1]z8 | 
[V:4]  [K:C] [M:2/1]A,4F,4 | 
[V:1] z8 | 
[V:2] B4c4 | 
[V:3] z8 | 
[V:4] G,4A,2F,2- | 
[V:1] z8 | 
[V:2] A4d4- | 
[V:3] z8 | 
[V:4] F,2E,2D,2C,B,, | 
[V:1] A,8 | 
[V:2] d2cBc4 | 
[V:3] z8 | 
[V:4] A,,4z2A,,2 | 
[V:1] B,4C4 | 
[V:2] d4e4 | 
[V:3] z8 | 
[V:4] G,,2B,,2A,,4 | 
[V:1] A,4D4- | 
[V:2] f8 | 
[V:3] z8 | 
[V:4] D,8 | 
[V:1] D2CB,C4 | 
[V:2] e8 | 
[V:3] A8 | 
[V:4] A,,8 | 
[V:1] D4E4 | 
[V:2] d4c4 | 
[V:3] B4c4 | 
[V:4] z4A,,4 | 
[V:1] F8 | 
[V:2] d4A4 | 
[V:3] A4d4- | 
[V:4] D,8 | 
[V:1] E8 | 
[V:2] A8 | 
[V:3] d2^cB^c4 | 
[V:4] A,,8 | 
[V:1] z4G4 | 
[V:2] A4c4- | 
[V:3] d4e4 | 
[V:4] D,4C,4 | 
[V:1] A6B2 | 
[V:2] c4d4 | 
[V:3] f8 | 
[V:4] F,4D,4 | 
[V:1] G8- | 
[V:2] B4c4 | 
[V:3] e8 | 
[V:4] E,8- | 
[V:1] G8 | 
[V:2] B2G2B2c2 | 
[V:3] z4e4 | 
[V:4] E,8 | 
[V:1] A4c4 | 
[V:2] d4G3A | 
[V:3] f4e4 | 
[V:4] D,4C,4 | 
[V:1] B4c4 | 
[V:2] B4e4 | 
[V:3] d4c4 | 
[V:4] G,4A,4 | 
[V:1] d4e4- | 
[V:2] d4z2c2- | 
[V:3] g6f2 | 
[V:4] B,4C4 | 
[V:1] e4A4- | 
[V:2] cde2f4 | 
[V:3] e4d2c2 | 
[V:4] C,4D,4 | 
[V:1] A2^G^FG4 | 
[V:2] e8 | 
[V:3] B8 | 
[V:4] E,8 | 
[V:1] A8 | 
[V:2] z4E4 | 
[V:3] A8- | 
[V:4] A,,8 | 
[V:1] z4E4 | 
[V:2] F4E4 | 
[V:3] A8 | 
[V:4] D,4C,4 | 
[V:1] F4E4 | 
[V:2] D4C4 | 
[V:3] z4A4 | 
[V:4] D,4A,,2C,2 | 
[V:1] D4C4 | 
[V:2] G4E4- | 
[V:3] _B4A4 | 
[V:4] G,,4A,,4 | 
[V:1] z4D4- | 
[V:2] E4A4- | 
[V:3] G4F4 | 
[V:4] C,4D,4 | 
[V:1] D2^CB,C4 | 
[V:2] A8 | 
[V:3] E8 | 
[V:4] A,,8 | 
[V:1] D8 | 
[V:2] D6E2 | 
[V:3] z4G4 | 
[V:4] D,4G,,4 | 
[V:1] z4D4 | 
[V:2] F8 | 
[V:3] A4B4 | 
[V:4] D,8 | 
[V:1] E4F4- | 
[V:2] G4d4- | 
[V:3] c4A4- | 
[V:4] C,4D,4- | 
[V:1] F2E2E4- | 
[V:2] d2B2c4 | 
[V:3] A2G2E4 | 
[V:4] D,2E,2C,4 | 
[V:1] E2DCD4 | 
[V:2] A8 | 
[V:3] F8 | 
[V:4] D,8 | 
[V:1] z4E4- | 
[V:2] G3AB4- | 
[V:3] G8 | 
[V:4] E,8 | 
[V:1] E4D4 | 
[V:2] B2AGA4 | 
[V:3] A8 | 
[V:4] F,8 | 
[V:1] E8- | 
[V:2] G4A4 | 
[V:3] B4c4 | 
[V:4] E,8- | 
[V:1] E8- | 
[V:2] G4c4 | 
[V:3] B4A4 | 
[V:4] E,8- | 
[V:1] E8 |]  
[V:2] B8 |]  
[V:3] G8 |]  
[V:4] E,8 |]  



